actions/22x22-dark/kr_diskusage.svg

<svg xmlns="http://www.w3.org/2000/svg" viewBox="0 0 22 22">
 <defs id="defs3051">
   <style type="text/css" id="current-color-scheme">
     .ColorScheme-Text {
       color:#f2f2f2;
     }
     </style>
 </defs>
   <path
      style="fill:currentColor;fill-opacity:1;stroke:none"
      d="m11 3c-4.432 0-8 3.568-8 8s3.568 8 8 8 8-3.568 8-8-3.568-8-8-8zm0 4c .40658 0 .791011.0776938 1.160156.1894531.256062-.1186679.538085-.1894531.839844-.1894531 1.108 0 2 .892 2 2 0 .3017595-.070785.5837822-.189453.8398438.111759.3691452.189453.7535762.189453 1.1601562 0 2.216-1.784 4-4 4s-4-1.784-4-4 1.784-4 4-4zm0 1c-1.662 0-3 1.338-3 3s1.338 3 3 3 3-1.338 3-3c0-.089707-.023129-.172412-.03125-.259766-.288087.160403-.614341.259766-.96875.259766-1.108 0-2-.892-2-2 0-.3544087.099363-.6806632.259766-.96875-.087354-.008122-.170059-.03125-.259766-.03125zm2 0c-.139775 0-.272428.0283331-.392578.0800781s-.227795.1269-.31836.21875c-.177818.1803458-.289062.426722-.289062.7011719 0 .554.446 1 1 1 .27445 0 .520826-.1112434.701172-.2890625.09185-.090565.167005-.1982094.21875-.3183594s.080078-.2528031.080078-.3925781c0-.554-.446-1-1-1z"
      class="ColorScheme-Text" />
</svg>

<svg xmlns="http://www.w3.org/2000/svg" viewBox="0 0 22 22">
  <defs id="defs3051">
    <style type="text/css" id="current-color-scheme">
      .ColorScheme-Text {
        color:#f2f2f2
      }
      </style>
  </defs>
 <path 
     style="fill:currentColor;fill-opacity:1;stroke:none"      
	 class="ColorScheme-Text"
        d="M 11 3 C 6.568 3 3 6.568 3 11 C 3 15.432 6.568 19 11 19 C 15.432 19 19 15.432 19 11 C 19 6.568 15.432 3 11 3 z M 11 7 C 11.40658 7 11.791011 7.0776938 12.160156 7.1894531 C 12.416218 7.0707852 12.698241 7 13 7 C 14.108 7 15 7.892 15 9 C 15 9.3017595 14.929215 9.5837822 14.810547 9.8398438 C 14.922306 10.208989 15 10.59342 15 11 C 15 13.216 13.216 15 11 15 C 8.784 15 7 13.216 7 11 C 7 8.784 8.784 7 11 7 z M 11 8 C 9.338 8 8 9.338 8 11 C 8 12.662 9.338 14 11 14 C 12.662 14 14 12.662 14 11 C 14 10.910293 13.976871 10.827588 13.96875 10.740234 C 13.680663 10.900637 13.354409 11 13 11 C 11.892 11 11 10.108 11 9 C 11 8.6455913 11.099363 8.3193368 11.259766 8.03125 C 11.172412 8.023128 11.089707 8 11 8 z M 13 8 C 12.860225 8 12.727572 8.0283331 12.607422 8.0800781 C 12.487272 8.1318231 12.379627 8.2069781 12.289062 8.2988281 C 12.111244 8.4791739 12 8.7255501 12 9 C 12 9.554 12.446 10 13 10 C 13.27445 10 13.520826 9.8887566 13.701172 9.7109375 C 13.793022 9.6203725 13.868177 9.5127281 13.919922 9.3925781 C 13.971667 9.2724281 14 9.139775 14 9 C 14 8.446 13.554 8 13 8 z "
     />
</svg>
